X:1
T:Title
%%score ( 1 2 ) ( 3 4 )
L:1/8
Q:1/4=80
M:3/4
K:Eb
V:1 treble nm="Strings 1, Treble"
V:2 treble 
V:3 bass nm="Strings 1, Bass"
V:4 bass 
V:1
 z2 z2 [EG][E_G] | [EG]3 [B,E] [GB][FA] | [FA] [EG]3 [EG][DF] | [CE]3 [CD] [CE][DF] | %4
w: 1.~Why~ not~|now?~ O~ sin ner,~|lis ten~ To~ that~|plead ing~ voice~ with|
 [EG]4 [EG][E_G] | [EG]3 [B,E] [GB][FA] | [FA] [EG]3 [EG][EG] | [DF]3 [DF] [EG][E=A] | %8
w: in,~ Say ing,~|"Je sus~ came~ to~|save~ you~ From~ the~|aw ful~ curse~ of~|
[M:4/4] z8[Q:1/4=80][Q:1/4=12] | z4 z2 G2- | G4 z4 | z8 | z8 | z4 z2 G2- | G4 z4 | z8 | z8 |] %17
w: |||||||||
V:2
 x6 | x6 | x6 | x6 | x6 | x6 | x6 | x6 |[M:4/4] [DB]3 [GB] [EG][FA] [GB]2- | [GB]3 G EF z E | %10
 EEE[Ge] [Bd][Ac] [GB]2- | [GB]E [B,D]2 [CE]2 [DF]2- | [DF]3 [GB] [EG][FA] [GB]2- | %13
 [GB]3 G EF z E | EEE[Ge] [Bd][Ac] [GB]2- | [GB][EA] [EG]2 [B,F]2 [B,E]2- | [B,E]4 z4 |] %17
V:3
 z2 z2 [E,B,][E,=A,] | [E,B,]3 [E,G,] [E,E][E,E] | [E,E] [E,B,]3 [E,B,][B,,A,] | %3
 [C,G,]3 [C,F,] [C,G,][B,,B,] | [E,B,]4 [E,B,][E,=A,] | [E,B,]3 [E,G,] [E,E][E,E] | %6
 [E,E] [E,B,]3 [E,B,][E,B,] | [F,B,]3 [F,B,] [F,=A,][F,C] |[M:4/4] [B,,B,]4 z2 z [E,E] | %9
 z4 z2 B,2- | B, .B,3 z4 | z8 | z8 | z4 z2 B,2- | B, .B,3 z4 | z8 | z8 |] %17
V:4
 x6 | x6 | x6 | x6 | x6 | x6 | x6 | x6 |[M:4/4] x8 | [G,E][B,E][E,E]B, G,A, z E, | %10
 .G,2 E,[E,B,] [E,C][E,D] [E,E]2- | [E,E][E,G,] [F,B,]2 [F,=A,]2 [B,,B,]2- | [B,,B,]4 z2 z [E,E] | %13
 [G,E][B,E][E,E]B, G,A, z E, | .G,2 E,[E,B,] [E,C][E,D] [E,E]2- | %15
 [E,E][A,,C] [B,,B,]2 [B,,A,]2 [E,G,]2- | [E,G,]4 z4 |] %17

